icons/general-loader-1-filled.svg

<svg viewBox="0 0 24 24"><path fill="currentColor" fill-rule="evenodd" d="M18 2.4a3.6 3.6 0 0 1 3.6 3.6v12a3.6 3.6 0 0 1-3.6 3.6h-12a3.6 3.6 0 0 1-3.6-3.6v-12a3.6 3.6 0 0 1 3.6-3.6zm-5 2.6a1 1 0 1 0-2 0v3.2a1 1 0 1 0 2 0zm-5.2 1.3a1 1 0 0 0-1.5 1.5l2.3 2.2a1 1 0 0 0 1.4-1.4zm9.9 1.5a1 1 0 0 0-1.5-1.5l-2.2 2.3a1 1 0 1 0 1.4 1.4zm-12.7 3.2a1 1 0 1 0 0 2h3.2a1 1 0 1 0 0-2zm10.8 0a1 1 0 1 0 0 2h3.2a1 1 0 1 0 0-2zm-.4 3a1 1 0 1 0-1.4 1.4l2.2 2.3a1 1 0 0 0 1.5-1.5zm-5.4 1.4a1 1 0 0 0-1.4-1.4l-2.3 2.2a1 1 0 0 0 1.5 1.5zm3 .4a1 1 0 1 0-2 0v3.2a1 1 0 1 0 2 0z" clip-rule="evenodd"/></svg>

<svg viewBox="0 0 24 24"><path fill="currentColor" fill-rule="evenodd" d="M18 2.4A3.6 3.6 0 0 1 21.6 6v12a3.6 3.6 0 0 1-3.6 3.6H6A3.6 3.6 0 0 1 2.4 18V6A3.6 3.6 0 0 1 6 2.4zM13 5a1 1 0 1 0-2 0v3.2a1 1 0 1 0 2 0zM7.8 6.3a1 1 0 0 0-1.5 1.5L8.6 10A1 1 0 0 0 10 8.6zm9.9 1.5a1 1 0 0 0-1.5-1.5L14 8.6a1 1 0 1 0 1.4 1.4zM5 11a1 1 0 1 0 0 2h3.2a1 1 0 1 0 0-2zm10.8 0a1 1 0 1 0 0 2H19a1 1 0 1 0 0-2zm-.4 3a1 1 0 1 0-1.4 1.4l2.2 2.3a1 1 0 0 0 1.5-1.5zM10 15.4A1 1 0 0 0 8.6 14l-2.3 2.2a1 1 0 0 0 1.5 1.5zm3 .4a1 1 0 1 0-2 0V19a1 1 0 1 0 2 0z" clip-rule="evenodd"/></svg>
